X: 6208
T: Carl Beaton's
R: reel
M: 4/4
K: Amajor
|:f|eA A/A/A cBce|fgag fecf|eA A/A/A cBce|fbec B/B/B B:|
|:g|abaf e/e/e ef|=g2 ag fece|abag fecf|ecBc e/e/e e:|

